deployments/warp_routes/BLEND/logo.svg

<svg xmlns="http://www.w3.org/2000/svg" width="400" height="400" fill="none" viewBox="0 0 400 400"><path fill="#000" d="M0 0h400v400H0z"/><path fill="#fff" d="M319.934 135.863v-30.729H92.115v30.729h101.397a211.7 211.7 0 0 0-50.71 42.697H92.115v30.729h28.557c-18.13 30.633-28.557 66.202-28.557 104.107h31.305c0-38.892 12.831-74.871 34.519-104.131h59.175c-30.618 24.757-50.196 62.253-50.196 104.131h31.305c0-57.436 47.595-104.131 106.083-104.131h15.652v-30.729H186.864c31.623-26.586 72.644-42.697 117.442-42.697h15.652z"/></svg>

<svg width="400" height="400" viewBox="0 0 400 400" fill="none" xmlns="http://www.w3.org/2000/svg">
<rect width="400" height="400" fill="black"/>
<path d="M319.934 135.863V105.134H92.1152V135.863H193.512C174.376 147.398 157.276 161.847 142.802 178.56H92.1152V209.289H120.672C102.542 239.922 92.1152 275.491 92.1152 313.396H123.42C123.42 274.504 136.251 238.525 157.939 209.265H217.114C186.496 234.022 166.918 271.518 166.918 313.396H198.223C198.223 255.96 245.818 209.265 304.306 209.265H319.958V178.536H186.864C218.487 151.95 259.508 135.839 304.306 135.839H319.958L319.934 135.863Z" fill="white"/>
</svg>
